client/public/assets/icons/utility/log_a_call.svg

<?xml version="1.0"?><svg xmlns="http://www.w3.org/2000/svg" width="52" height="52" viewBox="0 0 52 52"><path fill="#fff" d="m43 2h-29.5c-2.6 0-4.8 2.4-4.8 4.8v1.6h-1.6c-1.7 0-3.1 1.4-3.1 3.2s1.4 3.2 3.1 3.2h1.6v8h-1.6c-1.7 0-3.1 1.4-3.1 3.2s1.4 3.2 3.1 3.2h1.6v8h-1.6c-1.7 0-3.1 1.4-3.1 3.2 0 1.8 1.4 3.2 3.1 3.2h1.6v1.6c0 2.4 2.2 4.8 4.8 4.8h29.5c2.6 0 5-2.4 5-5v-38.4c0-2.7-2.4-4.6-5-4.6z m-2.8 32.2l-2.2 2.3c-0.5 0.5-1.2 0.8-1.8 0.7-5.2-0.3-10-2.7-13.5-6.2s-5.8-8.5-6.1-13.8c0-0.7 0.2-1.4 0.7-1.8l2.2-2.2c1-1 2.7-1 3.6 0.2l2 2.6c0.7 0.9 0.7 2.1 0.1 3l-1.7 2.5c-0.2 0.3-0.2 0.8 0.1 1l3.6 4.1 4 3.7c0.3 0.3 0.7 0.3 1 0.1l2.4-1.8c0.9-0.6 2.1-0.6 3 0.1l2.5 2.1c1.1 0.6 1.1 2.4 0.1 3.4z"></path></svg>

<?xml version="1.0" encoding="utf-8"?>
<!-- Generator: Adobe Illustrator 18.1.1, SVG Export Plug-In . SVG Version: 6.00 Build 0)  -->
<svg version="1.1" id="Layer_1" xmlns="http://www.w3.org/2000/svg" xmlns:xlink="http://www.w3.org/1999/xlink" x="0px" y="0px"
	 width="52px" height="52px" viewBox="0 0 52 52" enable-background="new 0 0 52 52" xml:space="preserve">
<g>
	<path fill="#FFFFFF" d="M43,2H13.5c-2.6,0-4.8,2.4-4.8,4.8v1.6H7.1C5.4,8.4,4,9.8,4,11.6s1.4,3.2,3.1,3.2h1.6v8H7.1
		C5.4,22.8,4,24.2,4,26s1.4,3.2,3.1,3.2h1.6v8H7.1c-1.7,0-3.1,1.4-3.1,3.2c0,1.8,1.4,3.2,3.1,3.2h1.6v1.6c0,2.4,2.2,4.8,4.8,4.8H43
		c2.6,0,5-2.4,5-5V6.6C48,3.9,45.6,2,43,2z M40.2,34.2L38,36.5c-0.5,0.5-1.2,0.8-1.8,0.7C31,36.9,26.2,34.5,22.7,31
		c-3.5-3.5-5.8-8.5-6.1-13.8c0-0.7,0.2-1.4,0.7-1.8l2.2-2.2c1-1,2.7-1,3.6,0.2l2,2.6c0.7,0.9,0.7,2.1,0.1,3l-1.7,2.5
		c-0.2,0.3-0.2,0.8,0.1,1l3.6,4.1l4,3.7c0.3,0.3,0.7,0.3,1,0.1l2.4-1.8c0.9-0.6,2.1-0.6,3,0.1l2.5,2.1
		C41.2,31.4,41.2,33.2,40.2,34.2z"/>
</g>
</svg>
